src/assets/img/no-view.svg

<?xml version="1.0" ?><svg viewBox="0 0 20 20" xmlns="http://www.w3.org/2000/svg"><path d="M12.81 4.36l-1.77 1.78a4 4 0 0 0-4.9 4.9l-2.76 2.75C2.06 12.79.96 11.49.2 10a11 11 0 0 1 12.6-5.64zm3.8 1.85c1.33 1 2.43 2.3 3.2 3.79a11 11 0 0 1-12.62 5.64l1.77-1.78a4 4 0 0 0 4.9-4.9l2.76-2.75zm-.25-3.99l1.42 1.42L3.64 17.78l-1.42-1.42L16.36 2.22z"/></svg>

<svg id="Layer_1" data-name="Layer 1" xmlns="http://www.w3.org/2000/svg" viewBox="0 0 19.61 15.56"><defs><style>.cls-1{fill:#9baacf;}</style></defs><path class="cls-1" d="M12.81,4.36,11,6.14A4,4,0,0,0,6.14,11L3.38,13.79A11.11,11.11,0,0,1,.2,10,11,11,0,0,1,12.8,4.36Zm3.8,1.85A11.16,11.16,0,0,1,19.81,10,11,11,0,0,1,7.19,15.64L9,13.86A4,4,0,0,0,13.86,9l2.76-2.75Zm-.25-4,1.42,1.42L3.64,17.78,2.22,16.36Z" transform="translate(-0.2 -2.22)"/></svg>
